tipitek/img/coinlist_icon-3.svg

<svg width="13" height="18" viewBox="0 0 13 18" fill="none" xmlns="http://www.w3.org/2000/svg">
<path fill-rule="evenodd" clip-rule="evenodd" d="M8.1531 4.30478C8.78663 2.15859 9.27109 0.310141 9.23382 0.198488C9.17171 0.0248089 8.886 -1.90735e-06 7.34566 -1.90735e-06H5.54446L5.42024 0.322546C5.34571 0.508631 4.68734 2.67963 3.95444 5.16077L2.62527 9.67645L1.54455 10.0114L0.463829 10.3339L0.215387 11.0783C0.0663219 11.4877 -0.0206327 11.8474 0.00421151 11.8723C0.0290557 11.9095 0.501095 11.7854 1.06009 11.6117C1.61908 11.4505 2.06628 11.3512 2.06628 11.4008C2.06628 11.4505 1.64393 12.8895 1.13462 14.6139C0.625316 16.3383 0.202965 17.7898 0.202965 17.8642C0.202965 18.0627 11.9046 18.0379 12.153 17.827C12.4387 17.6037 13.1468 15.1225 12.9729 14.9241C12.8735 14.8 11.9915 14.7628 8.93569 14.7628C5.85501 14.7628 5.03516 14.7256 5.07242 14.6015C5.10969 14.5271 5.43266 13.4478 5.7929 12.2072L6.45127 9.96178L7.45746 9.67645C8.01646 9.51517 8.51334 9.34149 8.57545 9.29187C8.69967 9.18022 9.15929 7.79078 9.09718 7.72875C9.08476 7.71634 8.62514 7.828 8.09099 8.00168C7.54442 8.16295 7.0848 8.2746 7.05996 8.24979C7.03511 8.22498 7.532 6.45096 8.1531 4.30478Z" fill="#23314F"/>
</svg>

<svg width="13" height="18" fill="none" xmlns="http://www.w3.org/2000/svg"><path fill-rule="evenodd" clip-rule="evenodd" d="M8.153 4.305C8.787 2.159 9.271.31 9.233.198 9.173.025 8.887 0 7.347 0H5.544L5.42.323C5.346.509 4.687 2.68 3.954 5.16L2.625 9.676l-1.08.335-1.081.323-.249.744c-.149.41-.236.77-.21.794.024.037.496-.087 1.055-.26.56-.162 1.006-.26 1.006-.211 0 .05-.422 1.489-.931 3.213-.51 1.724-.932 3.176-.932 3.25 0 .199 11.702.174 11.95-.037.286-.223.994-2.705.82-2.903-.1-.124-.982-.161-4.037-.161-3.081 0-3.9-.037-3.864-.162.038-.074.36-1.153.72-2.394l.66-2.245 1.005-.286c.56-.16 1.056-.335 1.118-.384.125-.112.584-1.501.522-1.563-.012-.013-.472.099-1.006.273-.547.16-1.006.273-1.031.248-.025-.025.472-1.799 1.093-3.945z" fill="#23314F"/></svg>
